X:1
T:Madrigal
T:Fedrelandssang
T:Rikard Nordraak 
T:Bjørnstjerne Bjørnson
T:Ja, vi elsker dette landet
C:Adam de la Hale (ca 1240-1287) <br/> Arr: Carl Schreiber
Z:Einar Ralf (1888-1971)
%%score [ 1 2 3 4 ]
L:1/8
Q:1/4=84
M:4/4
K:Eb
V:1 treble-8 nm="Tenor 1" snm="T1"
V:2 treble-8 nm="T2"
V:3 bass nm="B1"
V:4 bass nm="B2"
V:1
!mf!"^Ikke for hurtig" B3 A G2 F2 | E2 F2 G2 A2 | B3 c B2 A2 | G4 z4 |!f! c3 B A2 G2 | %5
w: 1.Ja, vi el- sker|det- te lan- det|som det sti- ger|frem,|fu- ret, vær- bitt|
w: 7.Nor- ske mann i|hus og hyt- te,|takk din sto- re|Gud!|Lan- det vil- le|
w: 8.Ja, vi el- sker|det- te lan- det|som det sti- ger|frem,|fu- ret, vær- bitt|
 F2 G2 A2 B2 |!<(! B3 c c2 d2!<)! | e4 z4 |!p! e3 e d3/2 d/ c3/2 c/ | B4 G4 | c3 c B2 B2 | %11
w: o- ver van- net|med de tu- sen|hjem,|el- sker, el- sker det og|ten- ker|på vår far og|
w: han be- skyt- te,|skjønt det mørkt så|ut.|Alt hva fed- re- ne har|kjem- pet,|mø- dre- ne har|
w: o- ver van- net|med de tu- sen|hjem.|Og som fed- res kamp har|he- vet|det av nød til|
 A4 z2 B3/2 B/ | B2!<(! c2 c2 d2!<)! |!mf! d4 e4 | e3!<(! e d2 e2!<)! | f4 z2!f! f3/2 f/ | %16
w: mor og den|sa- ga- natt som|sen- ker|drøm- me på vår|jord, og den|
w: grett har den|Her- re stil- le|lem- pet|så vi vant vår|rett, har den|
w: seir og- så|vi, når det blir|kre- vet,|for dets fred slå|leir! og- så|
 f2 g2 a2 g2 |!>(! !>!f4 e2!mf! d3/2 c/!>)! |!<(! B7/2!<)! c/ c2 d2 | e4 z4 |] %20
w: sa- ga- natt som|sen- ker, sen- ker|drøm- me på vår|jord.|
w: Her- re stil- le|lem- pet så vi|vant, vi vant vår|rett.|
w: vi, når det blir|kre- vet, for dets|fred, dets fred slå|leir!|
V:2
!mf! B3 A G2 F2 | E2 F2 G2 A2 | G3 A F2 F2 | G4 z4 |!f! c3 B A2 G2 | F2 G2 A2 A2 | %6
w: 1.Ja, vi el- sker|det- te lan- det|som det sti- ger|frem,|fu- ret, vær- bitt|o- ver van- net|
w: 7.Nor- ske mann i|hus og hyt- te,|takk din sto- re|Gud!|Lan- det vil- le|han be- skyt- te,|
w: 8.Ja, vi el- sker|det- te lan- det|som det sti- ger|frem,|fu- ret, vær- bitt|o- ver van- net|
!<(! G3 G A2 A2!<)! | G4 z4 |!p! c3 c B3/2 B/ G3/2 G/ | G4 G4 | A3 A G2 G2 | A4 z2 A3/2 A/ | %12
w: med de tu- sen|hjem,|el- sker, el- sker det og|ten- ker|på vår far og|mor og den|
w: skjønt det mørkt så|ut.|Alt, hva fe- dre- ne har|kjem- pet,|mø- dre- ne har|grett har den|
w: med de tu- sen|hjem.|Og som fe- dres kamp har|he- vet|det av nød til|seir, og- så|
 G2!<(! G2 A2 A2!<)! |!mf! B4 B4 | c3!<(! c B2 B2!<)! | c4 z2!f! d3/2 e/ | d2 e2 d2 e2 | %17
w: sa- ga- natt som|sen- ker|drøm- me på vår|jord, og den|sa- ga- natt som|
w: Her- re stil- le|lem- pet|så vi vant vår|rett, har den|Her- re stil- le|
w: vi, når det blir|kre- vet|for dets fred slå|leir! og- så|vi, når det blir|
!>(! (!>!e2 d2)!>)! e2!mf! d3/2 c/ |!<(! B7/2!<)! c/ c2 B2 | B4 z4 |] %20
w: sen- * ker, sen- ker|drøm- me på vår|jord.|
w: lem- * pet så vi|vant, vi vant vår|rett.|
w: kre- * vet, for dets|fred, dets fred slå|leir!|
V:3
!mf! B,3 A, G,2 F,2 | E,2 D,2 E,2 E,2 | E,3 E, (E,D,) (C,D,) | E,4 z4 |!f! C3 B, A,2 G,2 | %5
w: 1.Ja, vi el- sker|det- te lan- det|som det sti- * ger _|frem,|fu- ret, vær- bitt|
w: 7.Nor- ske mann i|hus og hyt- te,|takk din sto- * re _|Gud!|Lan- det vil- le|
w: 8.Ja, vi el- sker|det- te lan- det|som det sti- * ger _|frem,|fu- ret, vær- bitt|
 F,2 =E,2 F,2 F,2 |!<(! E,3 E, F,2 F,2!<)! | E,4 z4 |!p! G,3 G, G,3/2 G,/ E,3/2 E,/ | D,4 E,4 | %10
w: o- ver van- net|med de tu- sen|hjem,|el- sker, el- sker det og|ten- ker|
w: han be- skyt- te,|skjønt det mørkt så|ut.|Alt, hva fe- dre- ne har|kjem- pet,|
w: o- ver van- net|med de tu- sen|hjem.|Og som fe- dres kamp har|he- vet|
 E,3 E, =E,2 E,2 | F,4 z2 F,3/2 F,/ | E,2!<(! E,2 F,2 F,2!<)! |!mf! G,4 G,4 | %14
w: på vår far og|mor og den|sa- ga- natt som|sen- ker|
w: mø- dre- ne har|grett har den|Her- re stil- le|lem- pet|
w: det av nød til|seir, og- så|vi, når det blir|kre- vet|
 A,3!<(! A, A,2 G,2!<)! | A,4 z2!f! B,3/2 =B,/ | C2 B,2 C2 B,2 | %17
w: drøm- me på vår|jord, og den|sa- ga- natt som|
w: så vi vant vår|rett, har den|Her- re stil- le|
w: for dets fred slå|leir! og- så|vi, når det blir|
!>(! (!>!C2 B,2) B,2!mf! A,3/2 G,/!>)! | F,3/2!<(! G,/ A,3/2!<)! G,/ A,2 F,2 | G,4 z4 |] %20
w: sen- * ker, sen- ker|fa- gre drøm- me på vår|jord.|
w: lem- * pet, stil- le|lem- pet så vi vant vår|rett.|
w: kre- * vet, og- så|vi vil for dets fred slå|leir!|
V:4
!mf! B,3 A, G,2 F,2 | E,2 B,,2 E,2 C,2 | B,,3 A,, B,,2 B,,2 | E,4 z4 |!f! C3 B, A,2 G,2 | %5
w: 1.Ja, vi el- sker|det- te lan- det|som det sti- ger|frem,|fu- ret vær- bitt|
w: 7.Nor- ske mann i|hus og hyt- te,|takk din sto- re|Gud!|Lan- det vil- le|
w: 8.Ja, vi el- sker|det- te lan- det|som det sti- ger|frem,|fu- ret, vær- bitt|
 F,2 C,2 F,2 D,2 |!<(! E,3 C, A,,2 B,,2!<)! | E,4 z4 |!p! C,3 C, G,,3/2 G,,/ C,3/2 C,/ | G,,4 C,4 | %10
w: o- ver van- net|med de tu- sen|hjem,|el- sker, el- sker det og|ten- ker|
w: han be- skyt- te,|skjønt det mørkt så|ut.|Alt, hva fe- dre- ne har|kjem- pet,|
w: o- ver van- net|med de tu- sen|hjem.|Og som fe- dres kamp har|he- vet|
 A,,3 A,, C,2 C,2 | F,4 z2 D,3/2 D,/ | E,2!<(! E,2 F,2 F,2!<)! |!mf! G,4 G,4 | %14
w: på vår far og|mor og den|sa- ga- natt som|sen- ker|
w: mø- dre- ne har|grett har den|Her- re stil- le|lem- pet|
w: det av nød til|seir, og- så|vi, når det blir|kre- vet|
 A,3!<(! A, A,2 G,2!<)! | F,4 z2!f! B,3/2 =A,/ | A,2 G,2 F,2 G,2 | %17
w: drøm- me på vår|jord, og den|sa- ga- natt som|
w: så vi vant vår|rett, har den|Her- re stil- le|
w: for dets fred slå|leir! og- så|vi, når det blir|
!>(! !>!A,4!>)! G,2!mf! F,3/2 E,/ | D,3/2!<(! E,/ F,3/2!<)! E,/ F,2 B,,2 | E,4 z4 |] %20
w: sen- ker, sen- ker|fa- gre drøm- me på vår|jord.|
w: lem- pet, stil- le|lem- pet så vi vant vår|rett.|
w: kre- vet, og- så|vi vil for dets fred slå|leir|

